X:1
T:Title
%%score { ( 1 3 ) | 2 }
L:1/8
Q:1/4=100
M:4/4
K:G
V:1 treble nm="Grand Piano"
V:3 treble 
V:2 treble 
V:1
 BAGA G2 D2 | G[DFA][DGB][DAc] [Bd]4 | [Ge][Fd][Ec][Ge] d2 B2 | AAB^c [Fd]4 | B_B=Bc B2 G2 | %5
w: L.~E.~Jones * * * * *|||||
 B[GB][Gc][Gd] [Ge]4 | [Gd]2 [DGd]>[Gd] dBGB | [FA]4 G4 | d2 d>d ed^cd | B4 G4 | %10
w: |||||
 [Ec]2 [Ec]>[Ec] [Ge][Fd][Ec][DB] | z4 d2 z2 | BddB G2 B2 | E[EA][EG]E D2 GE | D2 G>B dBGB | %15
w: |||||
 [FA]4 G4 |] %16
w: |
V:2
 [G,DG][G,CG][G,B,][G,CG] [G,B,D]2[K:bass] [G,B,]2 | [G,B,D]D,B,,D, G,4 | %2
 [C,C][C,C][C,C][C,C][K:treble] [G,B,G]2 [G,DG]2 | [A,DF][A,DF][A,^CG][A,G] [D,A,]4 | %4
 [G,DG][G,^CG][G,DG][G,EG] [G,DG]2 [G,B,]2 | [G,DG][K:bass][=F,D][E,C][D,B,] [C,C]4 | %6
 [G,B,]2 B,,>[D,B,][K:treble] [G,B,G][G,DG][G,B,][G,DG] | [D,C]4 [G,B,]4 | %8
 [G,B,G]2 [G,B,G]>[G,B,G] [G,CG][G,B,G][G,_B,G][G,=B,G] | [G,DG]4[K:bass] [G,B,D]4 | %10
 [C,C]2 [C,C]>[C,C] [C,C][C,G,][C,G,]G,, | D,4 D,4 | [G,DG][G,B,G][G,B,G][G,DG] [G,B,]2 [G,G]2 | %13
 [C,G,C][C,C][C,C][C,C] [G,B,]2 [G,B,D][G,C] | %14
 [G,B,]2[K:treble] [G,B,D]>[G,DG] [G,B,G][G,G][G,B,][G,DG] | [D,C]4 [G,B,]4 |] %16
V:3
 x8 | x8 | x8 | x8 | x8 | x8 | x8 | x8 | x8 | x8 | x8 | [DFA]4 [DF]2- [DFc]2 | x8 | x8 | x8 | x8 |] %16

